public/assets/images/icons/yellow/export/folder-group-empty.svg

<svg width="16" height="16" xmlns="http://www.w3.org/2000/svg" viewBox="0 0 16 16" shape-rendering="geometricPrecision" fill="#ffad00"><defs><mask id="a"><rect fill="#fff" width="100%" height="100%"/><path d="M13.848-1.1L12.051.695l.286.287A4.455 4.455 0 0 0 9.23 5.236v.987h2.626v-.988c0-.491.191-.954.538-1.302l.03-.03 1.425 1.421 3.212-3.213L13.848-1.1z" fill="#000"/></mask></defs><path d="M13.848-.04l-.736.735.821.821h-.234l-.156.008A3.722 3.722 0 0 0 9.98 5.235v.237h1.126v-.237c0-.691.27-1.343.759-1.833a2.579 2.579 0 0 1 1.833-.759h.3l-.886.887.735.734L16 2.111 13.848-.04z" fill="#cb1800"/><g mask="url(#a)"><path d="M7.394 4.755l-.816-1.923h-3.78l-.816 1.923H.861V14h14.278V4.755H7.394zm6.648 8.174H1.916v-7h12.125v7z"/><circle cx="6.206" cy="8.478" r=".722"/><path d="M6.535 9.543h-.66a.697.697 0 0 0-.694.696v.904H7.23v-.904a.698.698 0 0 0-.695-.696z"/><circle cx="9.8" cy="9.334" r=".722"/><path d="M10.128 10.398h-.659a.697.697 0 0 0-.694.696v.905h2.049v-.905a.698.698 0 0 0-.696-.696z"/><circle cx="7.804" cy="7.68" r=".722"/><path d="M8.828 10.345V9.44a.698.698 0 0 0-.696-.696h-.659a.695.695 0 0 0-.691.668c.357.107.62.435.62.827v.105h1.426z"/></g></svg>

<?xml version="1.0"?><!DOCTYPE svg PUBLIC "-//W3C//DTD SVG 1.1//EN" "http://www.w3.org/Graphics/SVG/1.1/DTD/svg11.dtd"><svg width="16px" height="16px" xmlns="http://www.w3.org/2000/svg" viewBox="0 0 16 16" shape-rendering="geometricPrecision" fill="#ffad00"><defs><mask id="export-path"><rect fill="#fff" width="100%" height="100%"/><path d="M13.848-1.1l-1.797,1.795l0.286,0.287c-1.812,0.575-3.107,2.263-3.107,4.254v0.987h2.626 V5.235c0-0.491,0.191-0.954,0.538-1.302c0.01-0.01,0.021-0.02,0.03-0.03l1.425,1.421l3.212-3.213L13.848-1.1z" fill="#000"/></mask></defs><path id="export" display="inline" d="M13.848-0.04l-0.736,0.735l0.821,0.821h-0.234 l-0.156,0.008c-1.978,0.084-3.563,1.714-3.563,3.711v0.237h1.126V5.235c0-0.691,0.27-1.343,0.759-1.833 c0.49-0.489,1.141-0.759,1.833-0.759h0.237V2.643h0.063L13.112,3.53l0.735,0.734L16,2.111L13.848-0.04z" fill="#cb1800"/><g mask="url(#export-path)"><path d="M7.394,4.755L6.578,2.832H2.798L1.982,4.755H0.861V14h14.278V4.755H7.394z M14.042,12.929H1.916v-7 h12.125V12.929z"/><g><circle cx="6.206" cy="8.478" r="0.722"/><path d="M6.535,9.543H5.875c-0.383,0-0.694,0.314-0.694,0.696v0.904h2.049v-0.904C7.231,9.857,6.917,9.543,6.535,9.543z"/><circle cx="9.8" cy="9.334" r="0.722"/><path d="M10.128,10.398H9.469c-0.383,0-0.694,0.314-0.694,0.696v0.905h2.049v-0.905C10.825,10.712,10.511,10.398,10.128,10.398z"/><circle cx="7.804" cy="7.68" r="0.722"/><path d="M8.828,10.345V9.44c0-0.382-0.313-0.696-0.696-0.696H7.473c-0.373,0-0.676,0.298-0.691,0.668 c0.357,0.107,0.62,0.435,0.62,0.827v0.105H8.828z"/></g></g></svg>
